src/actions/24/draw-path.svg

<svg xmlns="http://www.w3.org/2000/svg" viewBox="0 0 24 24">
  <defs id="defs3051">
    <style type="text/css" id="current-color-scheme">
      .ColorScheme-Text {
        color:#2e3440;
      }
      </style>
  </defs>
 <path style="fill:currentColor;fill-opacity:1;stroke:none" 
     d="M 4 4 L 4 7 L 5 7 L 5 14.996094 L 4.0039062 15.992188 L 4 15.992188 L 4 20 L 5 20 L 7 20 L 8.0078125 20 L 8.0078125 19.996094 L 9.0078125 18.996094 L 17 18.996094 L 17 20 L 20 20 L 20 17 L 17 17 L 17 18 L 10.003906 18 L 20 8.0039062 L 19.998047 8.0019531 L 20 8 L 16 4 L 15.998047 4.0019531 L 15.996094 4 L 6 13.996094 L 6 7 L 7 7 L 7 4 L 4 4 z M 5 5 L 6 5 L 6 6 L 5 6 L 5 5 z M 15.998047 5.4121094 L 18.587891 8.0019531 L 16.587891 10.001953 L 9.7949219 16.794922 L 9 16 L 7.2050781 14.205078 L 13.998047 7.4121094 L 15.998047 5.4121094 z M 18 18 L 19 18 L 19 19 L 18 19 L 18 18 z "
     class="ColorScheme-Text"
     />
</svg>

<svg viewBox="0 0 24 24" xmlns="http://www.w3.org/2000/svg">
 <defs>
  <style type="text/css">.ColorScheme-Text {
        color:#2e3440;
      }</style>
 </defs>
 <path class="ColorScheme-Text" d="m4 4v3h1v7.9961l-0.99609 0.99609h-0.0039062v4.0078h1 2 1.0078v-0.003906l1-1h7.9922v1.0039h3v-3h-3v1h-6.9961l9.9961-9.9961-0.001953-0.0019531 0.001953-0.0019531-4-4-0.001953 0.0019531-0.001953-0.0019531-9.9961 9.9961v-6.9961h1v-3h-3zm1 1h1v1h-1v-1zm10.998 0.41211 2.5898 2.5898-8.793 8.793-2.5898-2.5898 8.793-8.793zm2.002 12.588h1v1h-1v-1z" fill="currentColor"/>
</svg>
